Numix-GalliumOS/16/devices/harddrive.svg

<?xml version="1.0" encoding="UTF-8" standalone="no"?>
<svg
   xmlns:dc="http://purl.org/dc/elements/1.1/"
   xmlns:cc="http://creativecommons.org/ns#"
   xmlns:rdf="http://www.w3.org/1999/02/22-rdf-syntax-ns#"
   xmlns:svg="http://www.w3.org/2000/svg"
   xmlns="http://www.w3.org/2000/svg"
   xmlns:sodipodi="http://sodipodi.sourceforge.net/DTD/sodipodi-0.dtd"
   xmlns:inkscape="http://www.inkscape.org/namespaces/inkscape"
   width="16"
   height="16"
   viewBox="0 0 16 16"
   id="svg2"
   version="1.1"
   inkscape:version="0.91 r"
   sodipodi:docname="yast_idetude.svg">
  <metadata
     id="metadata16">
    <rdf:RDF>
      <cc:Work
         rdf:about="">
        <dc:format>image/svg+xml</dc:format>
        <dc:type
           rdf:resource="http://purl.org/dc/dcmitype/StillImage" />
      </cc:Work>
    </rdf:RDF>
  </metadata>
  <defs
     id="defs14" />
  <sodipodi:namedview
     pagecolor="#ffffff"
     bordercolor="#666666"
     borderopacity="1"
     objecttolerance="10"
     gridtolerance="10"
     guidetolerance="10"
     inkscape:pageopacity="0"
     inkscape:pageshadow="2"
     inkscape:window-width="1366"
     inkscape:window-height="704"
     id="namedview12"
     showgrid="true"
     inkscape:zoom="14.75"
     inkscape:cx="8"
     inkscape:cy="8"
     inkscape:window-x="0"
     inkscape:window-y="27"
     inkscape:window-maximized="1"
     inkscape:current-layer="svg2">
    <inkscape:grid
       type="xygrid"
       id="grid2993" />
  </sodipodi:namedview>
  <rect
     style="fill:#839496;fill-opacity:1;stroke:none"
     id="rect3011"
     width="12"
     height="16"
     x="2"
     y="0"
     ry="1" />
  <rect
     style="opacity:0.46366781;fill:#fdf6e3;fill-opacity:1;stroke:none"
     id="rect3781"
     width="2"
     height="16"
     x="10.979818"
     y="0" />
  <path
     style="fill:#073642;fill-opacity:1"
     d="M 8.02336,2.9799084 C 7.378086,2.9731684 6.723942,3.11991 6.113719,3.4432779 4.1610007,4.4780535 3.4361226,6.896589 4.4708695,8.849251 5.328511,10.4677 7.130738,11.249926 8.837767,10.885269 l -0.7442,-2.625761 c -0.02441,0.0013 -0.04547,0.01405 -0.07022,0.01405 -0.744471,0 -1.347983,-0.603514 -1.347983,-1.347984 0,-0.744467 0.603512,-1.3479797 1.347983,-1.3479797 0.744472,0 1.347985,0.6035127 1.347985,1.3479797 0,0.332822 -0.123046,0.635423 -0.322955,0.870573 l 1.727105,2.064101 C 12.027761,8.651803 12.389125,6.714387 11.533727,5.1001768 10.822345,3.7577186 9.442956,2.9946427 8.023355,2.9799084 z"
     id="path6"
     inkscape:connector-curvature="0" />
  <path
     style="fill:#073642;fill-opacity:1;stroke:none"
     d="m 8.957317,9.493274 1.5,4.5 1.5,0 0,-1 z"
     id="path3879"
     inkscape:connector-curvature="0"
     sodipodi:nodetypes="ccccc" />
  <path
     style="opacity:0.49480968;fill:#93a1a1;fill-opacity:1"
     d="m 4.2184096,8.160832 c 0.358384,1.12383 1.2171335,2.056293 2.3637974,2.504793 L 7.523375,8.157564 C 7.387334,8.103434 7.265083,8.0273 7.148026,7.926228 6.959082,7.763087 6.82101,7.55896 6.746552,7.338411 L 4.2184096,8.160832 z"
     id="path6-5"
     inkscape:connector-curvature="0" />
  <path
     inkscape:connector-curvature="0"
     style="opacity:0.24567476;fill:#268bd2;fill-opacity:1"
     d="M 4.1036435,6.103531 C 3.8520989,7.255984 4.1295655,8.492896 4.8983638,9.454645 L 6.967461,7.753185 C 6.876711,7.638292 6.808905,7.511227 6.758066,7.365167 6.676006,7.129411 6.658496,6.883597 6.704286,6.655369 L 4.1036435,6.103531 z"
     id="path6-5-8"
     inkscape:transform-center-x="2.5095619"
     inkscape:transform-center-y="0.86106179" />
  <path
     inkscape:connector-curvature="0"
     style="opacity:0.49480968;fill:#93a1a1;fill-opacity:1"
     d="M 11.772636,5.6482718 C 11.406242,4.5270276 10.540862,3.6007144 9.391018,3.160408 L 8.467767,5.6751191 C 8.604191,5.7282741 8.726984,5.8035371 8.844759,5.9037714 9.034862,6.06556 9.174386,6.268696 9.250416,6.488709 l 2.52222,-0.8404372 z"
     id="path6-5-9" />
  <path
     inkscape:connector-curvature="0"
     style="opacity:0.19031145;fill:#268bd2;fill-opacity:1"
     d="M 11.902077,7.704701 C 12.145392,6.550483 11.859107,5.3155822 11.083468,4.3593419 L 9.026553,6.075521 c 0.09157,0.114243 0.160279,0.240821 0.212159,0.386514 0.08374,0.235165 0.103003,0.480844 0.05885,0.709395 l 2.604523,0.533271 z"
     id="path6-5-8-1"
     inkscape:transform-center-x="-2.5064827"
     inkscape:transform-center-y="-0.88600496" />
</svg>

<svg xmlns="http://www.w3.org/2000/svg" viewBox="0 0 16 16">
 <rect width="12" height="16" x="2" rx="1" style="fill:#839496;fill-opacity:1;stroke:none"/>
 <rect width="2" height="16" x="10.98" style="fill:#fdf6e3;opacity:0.464;fill-opacity:1;stroke:none"/>
 <path d="m 8.02 2.98 c -0.645 -0.007 -1.299 0.14 -1.91 0.463 -1.953 1.035 -2.678 3.453 -1.643 5.406 0.858 1.618 2.66 2.401 4.367 2.036 l -0.744 -2.626 c -0.024 0.001 -0.045 0.014 -0.07 0.014 -0.744 0 -1.348 -0.604 -1.348 -1.348 0 -0.744 0.604 -1.348 1.348 -1.348 0.744 0 1.348 0.604 1.348 1.348 0 0.333 -0.123 0.635 -0.323 0.871 l 1.727 2.064 c 1.252 -1.208 1.614 -3.146 0.758 -4.76 -0.711 -1.342 -2.091 -2.106 -3.51 -2.12 z" style="fill:#073642;fill-opacity:1"/>
 <path d="m 8.957 9.493 1.5 4.5 1.5 0 0 -1 z" style="fill:#073642;fill-opacity:1;stroke:none"/>
 <path d="m 4.218 8.161 c 0.358 1.124 1.217 2.056 2.364 2.505 l 0.941 -2.508 c -0.136 -0.054 -0.258 -0.13 -0.375 -0.231 -0.189 -0.163 -0.327 -0.367 -0.401 -0.588 l -2.528 0.822 z" style="fill:#93a1a1;opacity:0.495;fill-opacity:1"/>
 <path d="m 4.104 6.104 c -0.252 1.152 0.026 2.389 0.795 3.351 l 2.069 -1.701 c -0.091 -0.115 -0.159 -0.242 -0.209 -0.388 -0.082 -0.236 -0.1 -0.482 -0.054 -0.71 l -2.601 -0.552 z" style="fill:#268bd2;opacity:0.246;fill-opacity:1"/>
 <path d="m 11.773 5.648 c -0.366 -1.121 -1.232 -2.048 -2.382 -2.488 l -0.923 2.515 c 0.136 0.053 0.259 0.128 0.377 0.229 0.19 0.162 0.33 0.365 0.406 0.585 l 2.522 -0.84 z" style="fill:#93a1a1;opacity:0.495;fill-opacity:1"/>
 <path d="m 11.902 7.705 c 0.243 -1.154 -0.043 -2.389 -0.819 -3.345 l -2.057 1.716 c 0.092 0.114 0.16 0.241 0.212 0.387 0.084 0.235 0.103 0.481 0.059 0.709 l 2.605 0.533 z" style="fill:#268bd2;opacity:0.19;fill-opacity:1"/>
</svg>
